client/public/assets/icons/utility/toggle_panel_right.svg

<?xml version="1.0"?><svg width="52" height="52" viewBox="0 0 52 52" xmlns="http://www.w3.org/2000/svg"><title></title><desc></desc><path d="m4 8h44v36h-44v-36z m4 4v28h36v-28h-36z m22 2h12v24h-12v-24z" fill="#fff"></path></svg>

<?xml version="1.0" encoding="UTF-8"?>
<svg width="52px" height="52px" viewBox="0 0 52 52" version="1.1" xmlns="http://www.w3.org/2000/svg" xmlns:xlink="http://www.w3.org/1999/xlink">
    <!-- Generator: Sketch 49.3 (51167) - http://www.bohemiancoding.com/sketch -->
    <title>toggle_panel_right</title>
    <desc>Created with Sketch.</desc>
    <defs></defs>
    <g id="toggle_panel_right" stroke="none" stroke-width="1" fill="none" fill-rule="evenodd">
        <path d="M4,8 L48,8 L48,44 L4,44 L4,8 Z M8,12 L8,40 L44,40 L44,12 L8,12 Z M30,14 L42,14 L42,38 L30,38 L30,14 Z" id="Combined-Shape" fill="#FFFFFF"></path>
    </g>
</svg>
